X:28
T:Bine Waters,The. JClw.28
T:Boyne Waters. JClw.28
T:Idbury Hill,aka.(Bledington) JClw.28
M:4/4
L:1/8
Q:1/4=160
S:J.Clews MS,Stoke-upon-Tern,Shrops.1832
N:Presumably a minor key cousin of “Boyne Waters”
N:Similar to the Cotswold (Bledington) morris tune which
N:accompanies the dance ‘Idbury Hill’. The 9 bar ‘B’ music may
N:contain errors, or maybe not. I have added an edited version –
N:same notes with different lengths to fit 8 bars. NeilB.
A:N. Shropshire
Z:Neil Brookes 2006
K:Dm
“_version as in MS”
D2d2defd|cBAG F2GA|BABc dcBA|”^crs in MS”G4D4::!
D2ffe2f2|gfed c2c2|d2g2g2a2|b2a2g2d2|!
e2f2a2g2|f2e2d2cB|AFGA B2AG|d2c2B2A2|G4D4:|!
zzzz|zzzz|zzzz|!
“^edited version – note lengths”
“^altered to fit into 8 bars”
|:D2d2defd|cBAG F2GA|BABc dcBA|”^crs in MS”G4D4::!
D2ffe2f2|gfed c2c2|d2g2g2a2|b2a2g2de|!
f2a2g2f2|edcB AFGA|B2AG dcBA|G4D4:|

